src/img/svg/facebook.svg

<svg width="25" height="25" viewBox="0 0 25 25" fill="none" xmlns="http://www.w3.org/2000/svg">
<path d="M12.5 0C19.4039 0 25 5.59687 25 12.5C25 19.404 19.4039 25 12.5 25C5.59601 25 0 19.4039 0 12.5C0 5.59687 5.5961 0 12.5 0Z" fill="white"/>
<path d="M14.0215 8.6054H15.6324V6.22571H13.7387V6.23429C11.4441 6.31556 10.9739 7.60538 10.9324 8.96008H10.9277V10.1484H9.36523V12.4788H10.9277V18.7257H13.2824V12.4788H15.2113L15.5839 10.1484H13.2832V9.43044C13.2832 8.97261 13.5878 8.6054 14.0215 8.6054Z" fill="#00ADEE"/>
</svg>

<svg width="25" height="25" fill="none" xmlns="http://www.w3.org/2000/svg"><path d="M12.5 0C19.404 0 25 5.597 25 12.5 25 19.404 19.404 25 12.5 25S0 19.404 0 12.5C0 5.597 5.596 0 12.5 0z" fill="#fff"/><path d="M14.021 8.605h1.611v-2.38H13.74v.01c-2.295.08-2.765 1.37-2.807 2.725h-.004v1.188H9.365v2.33h1.563v6.248h2.354v-6.247h1.93l.372-2.33h-2.3V9.43c0-.457.304-.825.737-.825z" fill="#00ADEE"/></svg>
